raw/symbols/nzd.svg

<svg width="42" height="42" viewBox="0 0 42 42" fill="none" xmlns="http://www.w3.org/2000/svg">
<mask id="mask0_3145_261574" style="mask-type:alpha" maskUnits="userSpaceOnUse" x="0" y="0" width="42" height="42">
<circle cx="21" cy="21" r="21" fill="#D9D9D9"/>
</mask>
<g mask="url(#mask0_3145_261574)">
<path d="M67 0H-17V42H67V0Z" fill="#012169"/>
<path d="M36.4032 15.7483L36.3033 15.441L36.2035 15.7483L35.69 17.3286H34.0283H33.7052L33.9666 17.5186L35.3109 18.4953L34.7974 20.0756L34.6976 20.383L34.959 20.193L36.3033 19.2163L37.6476 20.193L37.9091 20.383L37.8092 20.0756L37.2957 18.4953L38.64 17.5186L38.9015 17.3286H38.5783H36.9167L36.4032 15.7483Z" fill="white" stroke="#F3F3F3" stroke-width="0.21"/>
<path d="M36.3101 15.8936L37.6473 20.0091L34.1465 17.4655H38.4738L34.9729 20.0091L35.6415 17.9513L36.3101 15.8936Z" fill="#C8102E"/>
<g clip-path="url(#clip0_3145_261574)">
<path d="M-16.9995 0L25.0005 21L-16.9995 0ZM-16.9995 21L25.0005 0L-16.9995 21Z" fill="black"/>
<path d="M-16.9995 0L25.0005 21M-16.9995 21L25.0005 0" stroke="white" stroke-width="4.2"/>
<path d="M-16.9995 0L25.0005 21L-16.9995 0ZM-16.9995 21L25.0005 0L-16.9995 21Z" fill="black"/>
<path d="M-16.9995 0L25.0005 21M-16.9995 21L25.0005 0" stroke="#C8102E" stroke-width="2.8"/>
<path d="M4.00098 0V21V0ZM-16.999 10.5H25.001H-16.999Z" fill="black"/>
<path d="M4.00098 0V21M-16.999 10.5H25.001" stroke="white" stroke-width="7"/>
<path d="M4.00098 0V21V0ZM-16.999 10.5H25.001H-16.999Z" fill="black"/>
<path d="M4.00098 0V21M-16.999 10.5H25.001" stroke="#C8102E" stroke-width="4.2"/>
</g>
</g>
<defs>
<clipPath id="clip0_3145_261574">
<rect width="42" height="21" fill="white" transform="translate(-17)"/>
</clipPath>
</defs>
</svg>

<svg xmlns="http://www.w3.org/2000/svg" width="42" height="42" fill="none"><mask id="a" width="42" height="42" x="0" y="0" maskUnits="userSpaceOnUse" style="mask-type:alpha"><circle cx="21" cy="21" r="21" fill="#D9D9D9"/></mask><g mask="url(#a)"><path fill="#012169" d="M67 0h-84v42h84V0Z"/><path fill="#fff" stroke="#F3F3F3" stroke-width=".21" d="m36.403 15.748-.1-.307-.1.307-.513 1.58H33.705l.262.19 1.344.977-.514 1.58-.1.308.262-.19 1.344-.977 1.345.977.261.19-.1-.307-.513-1.58 1.344-.977.261-.19h-1.984l-.514-1.58Z"/><path fill="#C8102E" d="m36.31 15.894 1.337 4.115-3.5-2.544h4.327l-3.501 2.544.669-2.058.668-2.057Z"/><g clip-path="url(#b)"><path fill="#000" d="m-17 0 42 21-42-21Zm0 21L25 0l-42 21Z"/><path stroke="#fff" stroke-width="4.2" d="m-17 0 42 21m-42 0L25 0"/><path fill="#000" d="m-17 0 42 21-42-21Zm0 21L25 0l-42 21Z"/><path stroke="#C8102E" stroke-width="2.8" d="m-17 0 42 21m-42 0L25 0"/><path fill="#000" d="M4.001 0v21V0Zm-21 10.5h42-42Z"/><path stroke="#fff" stroke-width="7" d="M4.001 0v21m-21-10.5h42"/><path fill="#000" d="M4.001 0v21V0Zm-21 10.5h42-42Z"/><path stroke="#C8102E" stroke-width="4.2" d="M4.001 0v21m-21-10.5h42"/></g></g><defs><clipPath id="b"><path fill="#fff" d="M-17 0h42v21h-42z"/></clipPath></defs></svg>
